static/assets/images/networks/world-chain-mono.svg

<svg width="257" height="256" viewBox="0 0 257 256" fill="none" xmlns="http://www.w3.org/2000/svg">
<path fill-rule="evenodd" clip-rule="evenodd" d="M119.742 0.29467C26.3551 6.44389 -29.4596 108.998 16.2625 190.428C64.4431 276.237 188.045 278.234 238.617 194.02C291.721 105.592 222.938 -6.50006 119.742 0.29467ZM116.486 24.7105C72.6126 30.2445 37.3933 61.2812 27.0729 103.505C26.3575 106.433 24.8117 114.864 24.8113 115.84C24.8113 116.318 56.1779 116.148 56.3081 115.67C56.3718 115.437 56.773 113.714 57.1998 111.842C63.3725 84.7633 85.4079 63.3484 112.836 57.7722C120.122 56.291 122.792 56.2093 164.395 56.1954L203.935 56.1817L200.692 53.0464C178.863 31.9442 146.221 20.9599 116.486 24.7105ZM158.941 80.3737C121.274 80.5595 120.356 80.5796 117.356 81.2829C102.589 84.7456 90.6848 94.0285 84.278 107.078C82.8143 110.06 81.0537 114.737 81.0537 115.645C81.0537 116.018 94.1129 116.096 156.594 116.096H232.135L231.899 114.139C230.665 103.911 225.051 86.1363 221.418 80.9617L220.761 80.0259L209.11 80.1045C202.702 80.1481 180.126 80.2689 158.941 80.3737ZM25.0206 141.869C35.1794 225.288 137.981 261.497 200.336 203.619L203.894 200.315L162.5 200.117C119.463 199.911 119.685 199.918 112.243 198.391C85.2419 192.851 63.0981 171.022 57.0662 143.999L56.2686 140.426L40.5459 140.337L24.8236 140.249L25.0206 141.869ZM81.0537 140.621C81.0537 141.495 82.9234 146.427 84.3144 149.221C90.8958 162.444 102.727 171.608 117.697 175.078C120.723 175.78 121.445 175.791 170.948 175.897L221.132 176.005L222.628 173.018C226.937 164.412 232.056 146.926 232.056 140.813C232.056 140.298 226.284 140.256 156.555 140.256C102.994 140.256 81.0537 140.362 81.0537 140.621Z" fill="black"/>
</svg>

<svg xmlns="http://www.w3.org/2000/svg" fill="none" viewBox="0 0 257 256"><path fill="#000" fill-rule="evenodd" d="M119.742.295C26.355 6.444-29.46 108.998 16.262 190.428c48.181 85.809 171.783 87.806 222.355 3.592C291.721 105.592 222.938-6.5 119.742.295m-3.256 24.415c-43.873 5.534-79.093 36.571-89.413 78.795-.715 2.928-2.261 11.359-2.262 12.335 0 .478 31.367.308 31.497-.17.064-.233.465-1.956.892-3.828 6.172-27.079 28.208-48.494 55.636-54.07 7.286-1.481 9.956-1.563 51.559-1.577l39.54-.013-3.243-3.136c-21.829-21.102-54.471-32.086-84.206-28.335m42.455 55.664c-37.667.186-38.585.206-41.585.909-14.767 3.463-26.671 12.745-33.078 25.795-1.464 2.982-3.224 7.659-3.224 8.567 0 .373 13.059.451 75.54.451h75.541l-.236-1.957c-1.234-10.228-6.848-28.003-10.481-33.177l-.657-.936-11.651.079c-6.408.043-28.984.164-50.169.269M25.021 141.87c10.158 83.419 112.96 119.628 175.315 61.75l3.558-3.304-41.394-.198c-43.037-.206-42.815-.199-50.257-1.726-27.001-5.54-49.145-27.369-55.177-54.392l-.797-3.573-15.723-.089-15.722-.088zm56.033-1.248c0 .874 1.87 5.806 3.26 8.6 6.582 13.223 18.413 22.387 33.383 25.857 3.026.702 3.748.713 53.251.819l50.184.108 1.496-2.987c4.309-8.606 9.428-26.092 9.428-32.205 0-.515-5.772-.557-75.501-.557-53.561 0-75.501.106-75.501.365" clip-rule="evenodd"/></svg>
